X:1
T:2) Orlando di Lasso: Cantiones Duarum Vocum : Nº11  "Fulgebunt justi"
%%score [ 1 2 ]
L:1/8
Q:1/4=160
M:4/2
K:C
V:1 treble-8 nm="Tenor" snm="T."
V:2 bass nm="Bassus" snm="B."
V:1
 d8 B4 B4 | d2 c2 B2 A2 G2 A2 B2 c2 | B8 E4 c4- | c4 B4 c4 c4 | G16 | z4 d4 B4 B4 | %6
w: Ful- ge- bunt|ju- * * * * * * *|* sti sic-|* ut li- li-|um,|ful- ge- bunt|
 G2 F2 E2 D2 C6 D2 | E2 F2 G6 E2 e4- | e2 dc B2 c2 d8 | A4 c8 B4 | c4 c4 G8 | z4 G4 B4 B4 | %12
w: ju- * * * * *|||sti sic- ut|li- li- um,|et si- cut|
 e6 d2 c4 B4 | z4 c4 c6 c2 | A8 z4 D4 | F2 G2 A2 B2 c8 | G8 z4 d4 | B2 A2 G2 F2 E8 | A8 z4 E4 | %19
w: ro- * * sa|in Je- ri-|cho flo-|re- * * * *|bunt, flo-|re- * * * *|bunt, flo-|
 G2 A2 B2 c2 d8 | G8 z4 c4- | c2 BA G2 A2 B8 | c4 d6 cB A2 B2 | c6 d2 e4 c4 | B8 z4 c4- | %25
w: re- * * * *|bunt an-||te Do- * * * *|* * * mi-|num, an-|
 c2 BA G2 A2 B4 E2 F2 | G2 A2 B2 c2 d4 G4- | G2 F2 F2 ED F4 E4 | G8 z4 c4- | c2 BA G2 A2 B4 c4 | %30
w: * * * * * * te *|* * * * * Do-|* * * * * * mi-|num, an-|* * * * * * te|
 e6 dc B2 c2 d4- | d2 cB A2 B2 c6 B2 | A2 D2 G8 ^F4 | G16- | G16- | !fermata!G16 |] %36
w: Do- * * * * *||* * * mi-|num.|||
V:2
 z16 | G,8 E,4 E,4 | G,2 F,2 E,2 D,2 C,2 D,2 E,2 F,2 | E,8 A,,4 C,4- | C,4 B,,4 C,4 C,4 | G,,16 | %6
w: |Ful- ge- bunt|ju- * * * * * * *|* sti sic-|* ut li- li-|um,|
 z4 G,4 E,4 E,4 | G,2 F,2 E,2 D,2 C,6 D,2 | E,2 F,2 G,6 F,E, D,2 E,2 | F,2 D,2 E,2 F,2 D,8 | %10
w: ful- ge- bunt|ju- * * * * *|||
 A,,4 C,8 B,,4 | C,4 C,4 G,,8 | z4 C,4 E,4 E,4 | A,6 G,2 F,4 E,4 | z4 F,4 F,6 F,2 | D,8 z4 A,,4 | %16
w: sti sic- ut|li- li- um,|et si- cut|ro- * * sa|in Je- ri-|cho flo-|
 C,2 D,2 E,2 F,2 G,8 | G,,8 z4 A,,4 | F,,2 G,,2 A,,2 B,,2 C,8- | C,4 G,,4 z4 G,4 | %20
w: re- * * * *|bunt, flo-|re- * * * *|* bunt, flo-|
 E,2 D,2 C,2 B,,2 A,,8 | E,8 z4 E,4- | E,2 D,C, B,,2 C,2 D,8 | A,,4 A,6 G,F, E,2 F,2 | %24
w: re- * * * *|bunt an-||te Do- * * * *|
 G,4 E,4 A,6 G,F, | E,8 z4 C,4- | C,2 B,,A,, G,,2 A,,2 B,,4 C,4 | D,6 C,B,, A,,2 B,,2 C,4- | %28
w: * mi- num, * *|* an-|* * * * * * te|Do- * * * * *|
 C,2 D,2 E,2 F,2 G,4 F,4 | E,8 z4 A,4- | A,2 G,F, E,2 F,2 G,6 F,E, | D,2 E,2 F,8 E,4 | %32
w: * * * * * mi-|num, an-||* * * te|
 C,2 B,,2 B,,2 A,,G,, A,,6 A,,2 | E,4 C,6 B,,A,, G,,2 A,,2 | B,,4 C,4 E,4 C,4 | !fermata!G,,16 |] %36
w: Do- * * * * * mi-|num, an- * * * *|* te Do- mi-|num.|

